!!! Softly Now The Light Of Day 
**kern
*clefG2
*M2/4
*k[]
*C:
2c
=1
4e
4d
=2
4g
4f
=3
4b
8g
8f
=4
2e
=5
4f
4e
=6
4e
4e
=7
4f
4B
=8
2c
=9 
4d
4d
=10
4g
8f
8e
=11
4a
8g
8f
=12
2e
=13
4f
4b
=14
8g
8f
8e
8d
=15 
4a
4B
=16
2c
*- 
